X:210
T: Ballykett
S: Treoir
Z: B.Black
M: 4/4
L: 1/8
R: reel
K: D
fe | dcAG F2 D2 | G2 AG EF G2 | dcAG F2 D2 |\
Addc d2 :|
ed | cdef g2 fg | agfa g2 ed | cdef g2 ec |\
Addc d2 ed |
cdef g2 fg | agfa g2 fg | afge fdec | Addc d2 ||
